svg/id_card.svg

<svg xmlns="http://www.w3.org/2000/svg" viewBox="0 0 24 24"><path d="M4 4c-1.11 0-2 .89-2 2v12c0 1.11.89 2 2 2h16c1.11 0 2-.89 2-2V6c0-1.11-.89-2-2-2zm0 2h16v4H4zm0 6h4v2H4zm6 0h10v2H10zm-6 4h10v2H4zm12 0h4v2h-4z"/></svg>

<?xml version="1.0" encoding="UTF-8"?><!DOCTYPE svg PUBLIC "-//W3C//DTD SVG 1.1//EN" "http://www.w3.org/Graphics/SVG/1.1/DTD/svg11.dtd"><svg xmlns="http://www.w3.org/2000/svg" xmlns:xlink="http://www.w3.org/1999/xlink" version="1.1" id="mdi-id-card" width="24" height="24" viewBox="0 0 24 24"><path d="M4 4C2.89 4 2 4.89 2 6V18C2 19.11 2.89 20 4 20H20C21.11 20 22 19.11 22 18V6C22 4.89 21.11 4 20 4H4M4 6H20V10H4V6M4 12H8V14H4V12M10 12H20V14H10V12M4 16H14V18H4V16M16 16H20V18H16V16Z" /></svg>
